!!!!SEGMENT:46Kanashikimonogatari_c.krn
!!!OTL: 悲しき物語
!!!OPR:Eiga Banso Kyokusyu,jidai-geki,kouhen
!!!YOY:1928
!!!ONB:Higeki
**kern
*clefG2
*k[]
*C:
*M4/4
*met(c)
4g
=1!|:
(2ee
4dd
4cc)
=2
(2ee
4dd
4a)
=3
(2ff
4ee
4dd)
=4
(2aa
2gg)
=5
(2gg
4ff
4ee)
=6
(4dd
4aa
4bb
4aa)
=7
(4gg
4ee
4ee
4dd)
=8
(2dd
2dd#X)
=9
(2ee
4dd
4cc)
=10
(2ee
4dd
4a)
=11
(2ff
4ee
4dd)
=12
(2aa
2gg)
=13
(2gg
4aa
4gg)
=14
(4gg
4ff
4ee
4dd)
=15
(4cc
4ee)
4.ee
8dd
=16
(8ccL
8g
8e
8gJ)
(8eL
8g
8b
8aJ)
=17
(8gL
8f#X
8g
8g#XJ)
(8aL
8b
8ee
8ddJ)
=18
(8ccL
8ee
8gg
8eeJ)
(8ccL
8ee
8bb
8aaJ)
=19
(8ggL
8ff#X
8gg
8gg#XJ)
(8aaL
8bb
8eee
8dddJ)
=20
2.ccc
4g
=21
2.ccc
4r
==
*-
!!!ENC: Yukiko Yoden
!!!END: 2023/06/11
